src/components/stable/gux-icon/icons/cjv-offer-offered.svg

<svg viewBox="0 0 40 40" version="1.1" xmlns="http://www.w3.org/2000/svg" xmlns:xlink="http://www.w3.org/1999/xlink">
    <title>Offer Offered</title>
    <g stroke="none" stroke-width="1" fill="none" fill-rule="evenodd">
        <g id="cjv-offer-offered">
            <circle id="Oval" fill="#FFFFFF" cx="20" cy="20" r="20"/>
            <g fill="#444A52" id="Shape">
                <path d="M40,20 C40,31.0457 31.0457,40 20,40 C8.9543,40 0,31.0457 0,20 C0,8.9543 8.9543,0 20,0 C31.0457,0 40,8.9543 40,20 Z M9.4819,16.6836 L9.4825,12.5845 L13.5018,11.3195 L15.9819,8 L20,9.2719 L24.0182,8 L26.4982,11.3195 L30.5175,12.5845 L30.5181,16.6837 L33,20 L30.518,23.3164 L30.5175,27.4155 L26.4982,28.6805 L24.0181,32 L20,30.7281 L15.9818,32 L13.5018,28.6805 L9.4825,27.4155 L9.4819,23.3163 L7,20 L9.4819,16.6836 Z M21.5858,20 L17.2929,15.7071 L18.7071,14.2929 L24.4142,20 L18.7071,25.7071 L17.2929,24.2929 L21.5858,20 Z"/>
            </g>
        </g>
    </g>
</svg>

<svg viewBox="0 0 40 40" xmlns="http://www.w3.org/2000/svg"><g fill="none" fill-rule="evenodd"><circle fill="#FFF" cx="20" cy="20" r="20"/><path d="M40 20c0 11.046-8.954 20-20 20S0 31.046 0 20 8.954 0 20 0s20 8.954 20 20zM9.482 16.684v-4.1l4.02-1.264L15.982 8 20 9.272 24.018 8l2.48 3.32 4.02 1.264v4.1L33 20l-2.482 3.316v4.1l-4.02 1.264-2.48 3.32L20 30.728 15.982 32l-2.48-3.32-4.02-1.264v-4.1L7 20l2.482-3.316zM21.586 20l-4.293-4.293 1.414-1.414L24.414 20l-5.707 5.707-1.414-1.414L21.586 20z" fill="#444A52"/></g></svg>
